X:1
T:I Am He That Liveth
T:I Am He That Liveth
T:James H. Burke, 1891
T:Charles Russell Hurditch, 1873
T:Public Domain Courtesy of the Cyber Hymnal™
T:Public Domain Courtesy of the Cyber Hymnal™
C:James H. Burke, 1891
Z:Public Domain
Z:Courtesy of the Cyber Hymnal™
%%score ( 1 2 ) ( 3 4 )
L:1/8
Q:1/4=110
M:4/4
K:Db
V:1 treble 
V:2 treble 
V:3 bass 
V:4 bass 
V:1
 [DF]2 | [FA]6 [EG]2 | [DF]6 [CE]2 | D3 [CE] [DF]2 [DB]2 | (B3 G) [CE]4 | [CE]4 [CE]2 [DF]2 | %6
w: 1.~He|dies! He|dies! The|low- ly Man of|sor- * rows,|On whom were|
w: 2.~He|lives! He|lives! What|glor- ious con- so-|la- * tion!|Ex- alt- ed|
w: 3.~He|comes! He|comes! O|blest an- ti- ci-|pa- * tion!|In keep- ing|
 [EG]6 [GB]2 | [GB]2 [FA]2 [EA]2 [EG]2 | [DF]6 [DF]2 | [DA]6 [DG]2 | [DF]6 [DE]2 | D3 [DE] | %12
w: laid our|ma- ny griefs and|woes; Our|sins He|bore, be-|neath God’s|
w: at His|Fa- ther’s own right|hand, He|pleads for|us, and|by His|
w: with His|true and faith- ful|word; To|call us|to our|heav’n- ly|
 [DF]2 [DB]2 | [DB]4 [DA]2 [GA]2 | [Fd]6 [Ac]2 | [Ge]2 [Gd]2 [Ac]2 [GB]2 (A4 B2) [Gc]2 | %16
w: aw- ful|bil- lows, And|He hath|tri- umphed o- ver all * our|
w: in- ter-|ces- sion, En-|a- bles|all His saints by grace * to|
w: con- sum-|ma- tion— Caught|up, to|be “for- ev- er with * the|
 [Fd]6 z2 ||"^Refrain" [DF]3 [EG] [FA]2 [DF]2 | [CE]4 D2 [CE]2 | [DF]3 [DB] [DA]2 [DF]2 | %20
w: foes.||||
w: stand.|“I am He that|liv- eth, that|liv- eth and was|
w: Lord.”||||
 [CE]6 z2 | [CE]3 [DF] [EG]2 [GB]2 | [GB]4 [FA]2 [Fd]2 | [Ec]3 [Ec] [Ed]2 [DB]2 | [CA]6 [GA][GA] | %25
w: |||||
w: dead,|I am He that|liv- eth, that|liv- eth and was|dead; And be-|
w: |||||
 [Fd]4- [Fd][Fd][Fd][Fd] | [Af]4- [Af][Fd][Fc][Fd] | [GB]6 [GB]2 | [=GB]4- [GB][GB][GB][GB] | %29
w: ||||
w: hold, * I am a-|live * for- ev- er-|more, Be-|hold, * I am a-|
w: ||||
 [=Ge]4- [Ge][Gd][GB][Gc] | A8 | [FA]2 [DF]2 [CE]2 D2 | B4 [EB]2 [EB]2 | [Ec]3 [Gc] [GB]2 [GA]2 | %34
w: |||||
w: live * for- ev- er-|more;|I am He that|liv- eth, that|liv- eth and was|
w: |||||
 [Fd]6 [FA][FA] | [Af]4- [Af][Ge] [Fd]>F | [GB]6 [EG]2 | ([DF]4 [CG]2) [CE]2 | D6 x2 |] x6 |] %40
w: ||||||
w: dead, And be-|hold, * I am a-|live for-|ev- * er-|more.”||
w: ||||||
V:2
 x2 | x8 | x8 | D3 x5 | C4 x4 | x8 | x8 | x8 | x8 | x8 | x8 | D3 x | x4 | x8 | x8 | x8 G6 x2 | %16
 x8 || x8 | x4 D2 x2 | x8 | x8 | x8 | x8 | x8 | x8 | x8 | x8 | x8 | x8 | x8 | (A2 F2 G4) | x6 D2 | %32
 (D2 =D2) x4 | x8 | x8 | x15/2 F/ | x8 | x8 | D6 x2 |] x6 |] %40
V:3
 [D,A,]2 | [D,A,]6 [D,A,]2 | [D,A,]6 [A,,G,]2 | [B,,F,]3 [A,,A,] [D,A,]2 [G,,G,]2 | %4
w: ~|~ ~|~ ~|~ ~ ~ ~|
 [A,,E,]4 [A,,A,]4 | [A,,A,]4 [A,,A,]2 [A,,A,]2 | [A,,C]6 [A,,D]2 | %7
w: ~ ~|~ ~ ~|~ ~|
 [A,,D]2 [A,,D]2 [A,,D]2 [A,,D]2 | [D,D]6 [D,A,]2 | [D,F,]6 [D,B,]2 | [D,A,]6 [D,G,]2 | %11
w: ~ ~ ~ ~|~ ~|~ ~|~ ~|
 [D,F,]3 [D,G,] | [D,A,]2 G,2 | G,4 [F,A,]2 [E,A,]2 | [D,A,]6 [F,A,]2 | %15
w: ~ ~|~ ~|~ ~ ~|~ ~|
 [G,B,]2 [G,B,]2 [G,E]2 [G,D]2 x8 | (C4 D2) [A,E]2 || [D,D]6 z2 | [D,A,]3 [D,A,] [D,A,]2 [D,A,]2 | %19
w: ~ ~ ~ ~|~ * ~|~|~ ~ ~ ~|
 (A,2 G,2) [D,F,]2 [A,,A,]2 | [D,A,]3 [D,G,] [D,F,]2 [D,A,]2 | [A,,A,]6 z2 | %22
w: ~ * ~ ~|~ ~ ~ ~|~|
 [A,,A,]3 [A,,A,] [A,,C]2 [A,,C]2 | [D,D]4 [D,D]2 [D,A,]2 | [E,A,]3 [E,A,] [E,=G,]2 [E,G,]2 | %25
w: ~ ~ ~ ~|~ ~ ~|~ ~ ~ ~|
 A,6 [A,C][A,C] | [D,D]2 [D,D]2 [D,D]2 [D,D]2 | [D,D]2 [D,D]2 [D,D]2 [D,D]2 | %28
w: ~ ~ ~|~ I am, I|am a- live forev-|
 [G,D]2 [G,D]2 [G,D]2 [G,D]2 | [E,E]2 [E,E]2 [E,E]2 [E,E]2 | [E,B,]2 [E,B,]2 [E,B,]2 [E,B,]2 | %31
w: er- more. ~ ~|~ ~ ~ ~|~ ~ ~ ~|
 [A,D]2 [A,D]2 [A,E]4 | [D,D]2 [D,A,]2 [E,A,]2 [F,A,]2 | G,2 [F,A,]2 [E,=G,]2 [E,G,]2 | %34
w: ~ ~ ~|~ ~ ~ ~|~ ~ ~ ~|
 A,3 [A,E] [A,D]2 [A,C]2 | [D,D]6 [D,D][D,D] | [D,D]2 [D,D]2 [D,D]2 [D,D]2 | %37
w: * ~ ~ ~|~ ~ ~|hold, I am, I|
 [G,D]2 [G,D]2 [G,D]2 [G,B,]2 | A,2 A,2 [A,,A,]2 [A,,G,]2 |] [D,F,]6 |] %40
w: am a- live for-|ev- er, ev- er|more.|
V:4
 x2 | x8 | x8 | x8 | x8 | x8 | x8 | x8 | x8 | x8 | x8 | x4 | x2 G,2 | G,4 x4 | x8 | x16 | A,6 x2 || %17
 x8 | x8 | A,,4 x4 | x8 | x8 | x8 | x8 | x8 | A,6 x2 | x8 | x8 | x8 | x8 | x8 | x8 | x8 | =G,2 x6 | %34
 A,3 x5 | x8 | x8 | x8 | A,2 A,2 x4 |] x6 |] %40

